X: 17
T: Andro 2
R:Andro
O:Bretagne
Z:Ren Quiniou <Rene.Quiniou@irisa.fr> abcusers 2002-3-1
M:4/4
K:Am
A2 e2 e2 de | f3 e dcBc | d2 B2 e2 dc | BcAB c3 B |\
A2 e2 e2 de | f3 e dcBc | d2 B2 e2 dc | BAcBA4 :|
A2 A2 B2 cB | A2 A2 B2 Bc | d2 B2 e2 dc | BcAB c3 B |\
A2 A2 B2 cB | A2 A2 B2 Bc | d2 B2 e2 dc | BAcBA4 :|
